;Gcode with compas_slicer 
;Ioana Mitropolou <mitropoulou@arch.ethz.ch> @ioannaMitropoulou
;Joris Burger     <burger@arch.ethz.ch>      @joburger
;Andrei Jipa      <jipa@arch.ethz.ch>         @stratocaster
;MIT License
;
;generated 08:40:18 - 02 November 2025
;
T0                              ;set tool
G21                             ;metric values
G90                             ;absolute positioning
M107                            ;start with the fan off
M140 S60                        ;set bed temperature fast
M104 S200                       ;set extruder temperature fast
M109 S200                       ;set extruder temperature and wait
M190 S60                        ;set bed temperature and wait
G21                             ;metric values
G90                             ;absolute positioning
M83                             ;set e-values to relative while in absolute mode
G28 X0 Y0                       ;home x and y axes
G28 Z0                          ;home z axis independently
G1 F4500                        ;set feedrate to 4,500 mm/min (75 mm/s)
G1 Z0.2                         ;move nozzle up 0.2mm
G1 X5 Y5                        ;move nozzle up 0.2mm
G1 Y150 E6.985                  ;extrude a line of filament
G1 X5.600                       ;move nozzle away from the first line
G1 Y5 E6.985                    ;extrude a second line of filament
G1 Z2                           ;move nozzle up 1.8mm
G92 E0                          ;reset the extruded length
G1 F4800                        ;set initial Feedrate
M117 compas gcode print...      ;show up text on LCD
;
G1 X150.488 Y140.119
G1 F3600    ;set extrusion feedrate
M106 S60     ;set fan on to set speed
G1 X150.975 Y140.151 E0.548
G1 X151.461 Y140.204 E0.548
G1 X151.943 Y140.278 E0.548
G1 X152.422 Y140.374 E0.548
G1 X152.897 Y140.490 E0.548
G1 X153.365 Y140.626 E0.548
G1 X153.828 Y140.783 E0.548
G1 X154.283 Y140.960 E0.548
G1 X154.730 Y141.157 E0.548
G1 X155.168 Y141.373 E0.548
G1 X155.596 Y141.608 E0.548
G1 X156.013 Y141.861 E0.548
G1 X156.419 Y142.132 E0.548
G1 X156.813 Y142.421 E0.548
G1 X157.194 Y142.727 E0.548
G1 X157.561 Y143.048 E0.548
G1 X157.913 Y143.386 E0.548
G1 X158.251 Y143.739 E0.548
G1 X158.573 Y144.106 E0.548
G1 X158.879 Y144.487 E0.548
G1 X159.167 Y144.880 E0.548
G1 X159.439 Y145.286 E0.548
G1 X159.692 Y145.704 E0.548
G1 X159.927 Y146.132 E0.548
G1 X160.143 Y146.570 E0.548
G1 X160.339 Y147.017 E0.548
G1 X160.516 Y147.472 E0.548
G1 X160.673 Y147.934 E0.548
G1 X160.810 Y148.403 E0.548
G1 X160.926 Y148.877 E0.548
G1 X161.021 Y149.356 E0.548
G1 X161.096 Y149.839 E0.548
G1 X161.149 Y150.324 E0.548
G1 X161.181 Y150.811 E0.548
G1 X161.191 Y151.300 E0.548
G1 X161.181 Y151.788 E0.548
G1 X161.149 Y152.275 E0.548
G1 X161.096 Y152.760 E0.548
G1 X161.021 Y153.243 E0.548
G1 X160.926 Y153.722 E0.548
G1 X160.810 Y154.196 E0.548
G1 X160.673 Y154.665 E0.548
G1 X160.516 Y155.127 E0.548
G1 X160.339 Y155.582 E0.548
G1 X160.143 Y156.029 E0.548
G1 X159.927 Y156.467 E0.548
G1 X159.692 Y156.895 E0.548
G1 X159.439 Y157.313 E0.548
G1 X159.167 Y157.719 E0.548
G1 X158.879 Y158.112 E0.548
G1 X158.573 Y158.493 E0.548
G1 X158.251 Y158.860 E0.548
G1 X157.913 Y159.213 E0.548
G1 X157.561 Y159.551 E0.548
G1 X157.194 Y159.873 E0.548
G1 X156.813 Y160.178 E0.548
G1 X156.419 Y160.467 E0.548
G1 X156.013 Y160.738 E0.548
G1 X155.596 Y160.992 E0.548
G1 X155.168 Y161.226 E0.548
G1 X154.730 Y161.442 E0.548
G1 X154.283 Y161.639 E0.548
G1 X153.828 Y161.816 E0.548
G1 X153.365 Y161.973 E0.548
G1 X152.897 Y162.110 E0.548
G1 X152.422 Y162.226 E0.548
G1 X151.943 Y162.321 E0.548
G1 X151.461 Y162.395 E0.548
G1 X150.975 Y162.448 E0.548
G1 X150.488 Y162.480 E0.548
G1 X150.000 Y162.491 E0.548
G1 X149.512 Y162.480 E0.548
G1 X149.025 Y162.448 E0.548
G1 X148.539 Y162.395 E0.548
G1 X148.057 Y162.321 E0.548
G1 X147.578 Y162.226 E0.548
G1 X147.103 Y162.110 E0.548
G1 X146.635 Y161.973 E0.548
G1 X146.172 Y161.816 E0.548
G1 X145.717 Y161.639 E0.548
G1 X145.270 Y161.442 E0.548
G1 X144.832 Y161.226 E0.548
G1 X144.404 Y160.992 E0.548
G1 X143.987 Y160.738 E0.548
G1 X143.581 Y160.467 E0.548
G1 X143.187 Y160.178 E0.548
G1 X142.806 Y159.873 E0.548
G1 X142.439 Y159.551 E0.548
G1 X142.087 Y159.213 E0.548
G1 X141.749 Y158.860 E0.548
G1 X141.427 Y158.493 E0.548
G1 X141.121 Y158.112 E0.548
G1 X140.833 Y157.719 E0.548
G1 X140.561 Y157.313 E0.548
G1 X140.308 Y156.895 E0.548
G1 X140.073 Y156.467 E0.548
G1 X139.857 Y156.029 E0.548
G1 X139.661 Y155.582 E0.548
G1 X139.484 Y155.127 E0.548
G1 X139.327 Y154.665 E0.548
G1 X139.190 Y154.196 E0.548
G1 X139.074 Y153.722 E0.548
G1 X138.979 Y153.243 E0.548
G1 X138.904 Y152.760 E0.548
G1 X138.851 Y152.275 E0.548
G1 X138.819 Y151.788 E0.548
G1 X138.809 Y151.300 E0.548
G1 X138.819 Y150.811 E0.548
G1 X138.851 Y150.324 E0.548
G1 X138.904 Y149.839 E0.548
G1 X138.979 Y149.356 E0.548
G1 X139.074 Y148.877 E0.548
G1 X139.190 Y148.403 E0.548
G1 X139.327 Y147.934 E0.548
G1 X139.484 Y147.472 E0.548
G1 X139.661 Y147.017 E0.548
G1 X139.857 Y146.570 E0.548
G1 X140.073 Y146.132 E0.548
G1 X140.308 Y145.704 E0.548
G1 X140.561 Y145.286 E0.548
G1 X140.833 Y144.880 E0.548
G1 X141.121 Y144.487 E0.548
G1 X141.427 Y144.106 E0.548
G1 X141.749 Y143.739 E0.548
G1 X142.087 Y143.386 E0.548
G1 X142.439 Y143.048 E0.548
G1 X142.806 Y142.727 E0.548
G1 X143.187 Y142.421 E0.548
G1 X143.581 Y142.132 E0.548
G1 X143.987 Y141.861 E0.548
G1 X144.404 Y141.608 E0.548
G1 X144.832 Y141.373 E0.548
G1 X145.270 Y141.157 E0.548
G1 X145.717 Y140.960 E0.548
G1 X146.172 Y140.783 E0.548
G1 X146.635 Y140.626 E0.548
G1 X147.103 Y140.490 E0.548
G1 X147.578 Y140.374 E0.548
G1 X148.057 Y140.278 E0.548
G1 X148.539 Y140.204 E0.548
G1 X149.025 Y140.151 E0.548
G1 X149.512 Y140.119 E0.548
G1 X150.000 Y140.108 E0.548
G1 X150.488 Y140.119 E0.548
G1 X150.357 Y143.117
G1 F3600    ;set extrusion feedrate
G1 X150.714 Y143.140 E0.401
G1 X151.069 Y143.179 E0.401
G1 X151.422 Y143.233 E0.401
G1 X151.773 Y143.303 E0.401
G1 X152.120 Y143.388 E0.401
G1 X152.463 Y143.488 E0.401
G1 X152.801 Y143.603 E0.401
G1 X153.134 Y143.732 E0.401
G1 X153.462 Y143.876 E0.401
G1 X153.782 Y144.034 E0.401
G1 X154.095 Y144.206 E0.401
G1 X154.401 Y144.392 E0.401
G1 X154.698 Y144.590 E0.401
G1 X154.986 Y144.802 E0.401
G1 X155.265 Y145.025 E0.401
G1 X155.534 Y145.261 E0.401
G1 X155.792 Y145.508 E0.401
G1 X156.039 Y145.766 E0.401
G1 X156.274 Y146.035 E0.401
G1 X156.498 Y146.313 E0.401
G1 X156.709 Y146.602 E0.401
G1 X156.908 Y146.899 E0.401
G1 X157.093 Y147.204 E0.401
G1 X157.265 Y147.518 E0.401
G1 X157.423 Y147.838 E0.401
G1 X157.567 Y148.165 E0.401
G1 X157.697 Y148.498 E0.401
G1 X157.812 Y148.837 E0.401
G1 X157.912 Y149.180 E0.401
G1 X157.996 Y149.527 E0.401
G1 X158.066 Y149.877 E0.401
G1 X158.121 Y150.230 E0.401
G1 X158.159 Y150.586 E0.401
G1 X158.183 Y150.942 E0.401
G1 X158.191 Y151.300 E0.401
G1 X158.183 Y151.657 E0.401
G1 X158.159 Y152.013 E0.401
G1 X158.121 Y152.369 E0.401
G1 X158.066 Y152.722 E0.401
G1 X157.996 Y153.072 E0.401
G1 X157.912 Y153.419 E0.401
G1 X157.812 Y153.763 E0.401
G1 X157.697 Y154.101 E0.401
G1 X157.567 Y154.434 E0.401
G1 X157.423 Y154.761 E0.401
G1 X157.265 Y155.082 E0.401
G1 X157.093 Y155.395 E0.401
G1 X156.908 Y155.700 E0.401
G1 X156.709 Y155.998 E0.401
G1 X156.498 Y156.286 E0.401
G1 X156.274 Y156.564 E0.401
G1 X156.039 Y156.833 E0.401
G1 X155.792 Y157.091 E0.401
G1 X155.534 Y157.338 E0.401
G1 X155.265 Y157.574 E0.401
G1 X154.986 Y157.798 E0.401
G1 X154.698 Y158.009 E0.401
G1 X154.401 Y158.207 E0.401
G1 X154.095 Y158.393 E0.401
G1 X153.782 Y158.565 E0.401
G1 X153.461 Y158.723 E0.401
G1 X153.134 Y158.867 E0.401
G1 X152.801 Y158.996 E0.401
G1 X152.463 Y159.111 E0.401
G1 X152.120 Y159.211 E0.401
G1 X151.773 Y159.296 E0.401
G1 X151.422 Y159.366 E0.401
G1 X151.069 Y159.420 E0.401
G1 X150.714 Y159.459 E0.401
G1 X150.357 Y159.482 E0.401
G1 X150.000 Y159.490 E0.401
G1 X149.643 Y159.482 E0.401
G1 X149.286 Y159.459 E0.401
G1 X148.931 Y159.420 E0.401
G1 X148.578 Y159.366 E0.401
G1 X148.227 Y159.296 E0.401
G1 X147.880 Y159.211 E0.401
G1 X147.537 Y159.111 E0.401
G1 X147.199 Y158.996 E0.401
G1 X146.866 Y158.867 E0.401
G1 X146.539 Y158.723 E0.401
G1 X146.218 Y158.565 E0.401
G1 X145.905 Y158.393 E0.401
G1 X145.599 Y158.207 E0.401
G1 X145.302 Y158.009 E0.401
G1 X145.014 Y157.798 E0.401
G1 X144.735 Y157.574 E0.401
G1 X144.466 Y157.338 E0.401
G1 X144.208 Y157.091 E0.401
G1 X143.961 Y156.833 E0.401
G1 X143.726 Y156.564 E0.401
G1 X143.502 Y156.286 E0.401
G1 X143.291 Y155.998 E0.401
G1 X143.092 Y155.700 E0.401
G1 X142.907 Y155.395 E0.401
G1 X142.735 Y155.082 E0.401
G1 X142.577 Y154.761 E0.401
G1 X142.433 Y154.434 E0.401
G1 X142.303 Y154.101 E0.401
G1 X142.188 Y153.763 E0.401
G1 X142.088 Y153.419 E0.401
G1 X142.004 Y153.072 E0.401
G1 X141.934 Y152.722 E0.401
G1 X141.879 Y152.369 E0.401
G1 X141.841 Y152.013 E0.401
G1 X141.817 Y151.657 E0.401
G1 X141.809 Y151.300 E0.401
G1 X141.817 Y150.942 E0.401
G1 X141.841 Y150.586 E0.401
G1 X141.879 Y150.230 E0.401
G1 X141.934 Y149.877 E0.401
G1 X142.004 Y149.527 E0.401
G1 X142.088 Y149.180 E0.401
G1 X142.188 Y148.837 E0.401
G1 X142.303 Y148.498 E0.401
G1 X142.433 Y148.165 E0.401
G1 X142.577 Y147.838 E0.401
G1 X142.735 Y147.518 E0.401
G1 X142.907 Y147.204 E0.401
G1 X143.092 Y146.899 E0.401
G1 X143.291 Y146.602 E0.401
G1 X143.502 Y146.313 E0.401
G1 X143.726 Y146.035 E0.401
G1 X143.961 Y145.766 E0.401
G1 X144.208 Y145.508 E0.401
G1 X144.466 Y145.261 E0.401
G1 X144.735 Y145.025 E0.401
G1 X145.014 Y144.802 E0.401
G1 X145.302 Y144.590 E0.401
G1 X145.599 Y144.392 E0.401
G1 X145.905 Y144.206 E0.401
G1 X146.218 Y144.034 E0.401
G1 X146.538 Y143.876 E0.401
G1 X146.866 Y143.732 E0.401
G1 X147.199 Y143.603 E0.401
G1 X147.537 Y143.488 E0.401
G1 X147.880 Y143.388 E0.401
G1 X148.227 Y143.303 E0.401
G1 X148.578 Y143.233 E0.401
G1 X148.931 Y143.179 E0.401
G1 X149.286 Y143.140 E0.401
G1 X149.643 Y143.117 E0.401
G1 X150.000 Y143.109 E0.401
G1 X150.357 Y143.117 E0.401
G1 X150.226 Y146.115
G1 F3600    ;set extrusion feedrate
G1 X150.452 Y146.129 E0.254
G1 X150.677 Y146.154 E0.254
G1 X150.901 Y146.189 E0.254
G1 X151.123 Y146.233 E0.254
G1 X151.343 Y146.287 E0.254
G1 X151.561 Y146.350 E0.254
G1 X151.775 Y146.423 E0.254
G1 X151.986 Y146.505 E0.254
G1 X152.193 Y146.596 E0.254
G1 X152.396 Y146.696 E0.254
G1 X152.595 Y146.805 E0.254
G1 X152.789 Y146.922 E0.254
G1 X152.977 Y147.048 E0.254
G1 X153.159 Y147.182 E0.254
G1 X153.336 Y147.324 E0.254
G1 X153.506 Y147.473 E0.254
G1 X153.670 Y147.630 E0.254
G1 X153.826 Y147.793 E0.254
G1 X153.976 Y147.964 E0.254
G1 X154.117 Y148.140 E0.254
G1 X154.251 Y148.323 E0.254
G1 X154.377 Y148.511 E0.254
G1 X154.495 Y148.705 E0.254
G1 X154.604 Y148.903 E0.254
G1 X154.704 Y149.106 E0.254
G1 X154.795 Y149.313 E0.254
G1 X154.877 Y149.525 E0.254
G1 X154.950 Y149.739 E0.254
G1 X155.013 Y149.956 E0.254
G1 X155.067 Y150.176 E0.254
G1 X155.111 Y150.398 E0.254
G1 X155.146 Y150.622 E0.254
G1 X155.170 Y150.847 E0.254
G1 X155.185 Y151.073 E0.254
G1 X155.190 Y151.300 E0.254
G1 X155.185 Y151.526 E0.254
G1 X155.170 Y151.752 E0.254
G1 X155.146 Y151.977 E0.254
G1 X155.111 Y152.201 E0.254
G1 X155.067 Y152.423 E0.254
G1 X155.013 Y152.643 E0.254
G1 X154.950 Y152.860 E0.254
G1 X154.877 Y153.075 E0.254
G1 X154.795 Y153.286 E0.254
G1 X154.704 Y153.493 E0.254
G1 X154.604 Y153.696 E0.254
G1 X154.495 Y153.895 E0.254
G1 X154.377 Y154.088 E0.254
G1 X154.251 Y154.276 E0.254
G1 X154.117 Y154.459 E0.254
G1 X153.976 Y154.636 E0.254
G1 X153.826 Y154.806 E0.254
G1 X153.670 Y154.969 E0.254
G1 X153.506 Y155.126 E0.254
G1 X153.336 Y155.275 E0.254
G1 X153.159 Y155.417 E0.254
G1 X152.977 Y155.551 E0.254
G1 X152.789 Y155.677 E0.254
G1 X152.595 Y155.794 E0.254
G1 X152.396 Y155.903 E0.254
G1 X152.193 Y156.003 E0.254
G1 X151.986 Y156.094 E0.254
G1 X151.775 Y156.177 E0.254
G1 X151.561 Y156.249 E0.254
G1 X151.343 Y156.313 E0.254
G1 X151.123 Y156.366 E0.254
G1 X150.901 Y156.411 E0.254
G1 X150.677 Y156.445 E0.254
G1 X150.452 Y156.470 E0.254
G1 X150.226 Y156.485 E0.254
G1 X150.000 Y156.489 E0.254
G1 X149.774 Y156.485 E0.254
G1 X149.548 Y156.470 E0.254
G1 X149.323 Y156.445 E0.254
G1 X149.099 Y156.411 E0.254
G1 X148.877 Y156.366 E0.254
G1 X148.657 Y156.313 E0.254
G1 X148.439 Y156.249 E0.254
G1 X148.225 Y156.177 E0.254
G1 X148.014 Y156.094 E0.254
G1 X147.807 Y156.003 E0.254
G1 X147.604 Y155.903 E0.254
G1 X147.405 Y155.794 E0.254
G1 X147.211 Y155.677 E0.254
G1 X147.023 Y155.551 E0.254
G1 X146.841 Y155.417 E0.254
G1 X146.664 Y155.275 E0.254
G1 X146.494 Y155.126 E0.254
G1 X146.330 Y154.969 E0.254
G1 X146.174 Y154.806 E0.254
G1 X146.024 Y154.636 E0.254
G1 X145.883 Y154.459 E0.254
G1 X145.749 Y154.276 E0.254
G1 X145.623 Y154.088 E0.254
G1 X145.505 Y153.895 E0.254
G1 X145.396 Y153.696 E0.254
G1 X145.296 Y153.493 E0.254
G1 X145.205 Y153.286 E0.254
G1 X145.123 Y153.075 E0.254
G1 X145.050 Y152.860 E0.254
G1 X144.987 Y152.643 E0.254
G1 X144.933 Y152.423 E0.254
G1 X144.889 Y152.201 E0.254
G1 X144.854 Y151.977 E0.254
G1 X144.830 Y151.752 E0.254
G1 X144.815 Y151.526 E0.254
G1 X144.810 Y151.300 E0.254
G1 X144.815 Y151.073 E0.254
G1 X144.830 Y150.847 E0.254
G1 X144.854 Y150.622 E0.254
G1 X144.889 Y150.398 E0.254
G1 X144.933 Y150.176 E0.254
G1 X144.987 Y149.956 E0.254
G1 X145.050 Y149.739 E0.254
G1 X145.123 Y149.525 E0.254
G1 X145.205 Y149.313 E0.254
G1 X145.296 Y149.106 E0.254
G1 X145.396 Y148.903 E0.254
G1 X145.505 Y148.705 E0.254
G1 X145.623 Y148.511 E0.254
G1 X145.749 Y148.323 E0.254
G1 X145.883 Y148.140 E0.254
G1 X146.024 Y147.964 E0.254
G1 X146.174 Y147.793 E0.254
G1 X146.330 Y147.630 E0.254
G1 X146.494 Y147.473 E0.254
G1 X146.664 Y147.324 E0.254
G1 X146.841 Y147.182 E0.254
G1 X147.023 Y147.048 E0.254
G1 X147.211 Y146.922 E0.254
G1 X147.405 Y146.805 E0.254
G1 X147.604 Y146.696 E0.254
G1 X147.807 Y146.596 E0.254
G1 X148.014 Y146.505 E0.254
G1 X148.225 Y146.423 E0.254
G1 X148.439 Y146.350 E0.254
G1 X148.657 Y146.287 E0.254
G1 X148.877 Y146.233 E0.254
G1 X149.099 Y146.189 E0.254
G1 X149.323 Y146.154 E0.254
G1 X149.548 Y146.129 E0.254
G1 X149.774 Y146.115 E0.254
G1 X150.000 Y146.110 E0.254
G1 X150.226 Y146.115 E0.254
G1 X150.095 Y149.112
G1 F3600    ;set extrusion feedrate
G1 X150.191 Y149.119 E0.107
G1 X150.286 Y149.129 E0.107
G1 X150.380 Y149.144 E0.107
G1 X150.474 Y149.162 E0.107
G1 X150.567 Y149.185 E0.107
G1 X150.658 Y149.212 E0.107
G1 X150.749 Y149.242 E0.107
G1 X150.838 Y149.277 E0.107
G1 X150.925 Y149.315 E0.107
G1 X151.011 Y149.358 E0.107
G1 X151.095 Y149.404 E0.107
G1 X151.176 Y149.453 E0.107
G1 X151.256 Y149.506 E0.107
G1 X151.333 Y149.563 E0.107
G1 X151.407 Y149.623 E0.107
G1 X151.479 Y149.686 E0.107
G1 X151.548 Y149.752 E0.107
G1 X151.614 Y149.821 E0.107
G1 X151.677 Y149.892 E0.107
G1 X151.737 Y149.967 E0.107
G1 X151.793 Y150.044 E0.107
G1 X151.846 Y150.123 E0.107
G1 X151.896 Y150.205 E0.107
G1 X151.942 Y150.289 E0.107
G1 X151.984 Y150.374 E0.107
G1 X152.023 Y150.462 E0.107
G1 X152.057 Y150.551 E0.107
G1 X152.088 Y150.641 E0.107
G1 X152.115 Y150.733 E0.107
G1 X152.137 Y150.826 E0.107
G1 X152.156 Y150.919 E0.107
G1 X152.170 Y151.014 E0.107
G1 X152.181 Y151.109 E0.107
G1 X152.187 Y151.204 E0.107
G1 X152.189 Y151.300 E0.107
G1 X152.187 Y151.395 E0.107
G1 X152.181 Y151.490 E0.107
G1 X152.170 Y151.585 E0.107
G1 X152.156 Y151.680 E0.107
G1 X152.137 Y151.773 E0.107
G1 X152.115 Y151.866 E0.107
G1 X152.088 Y151.958 E0.107
G1 X152.057 Y152.048 E0.107
G1 X152.023 Y152.137 E0.107
G1 X151.984 Y152.225 E0.107
G1 X151.942 Y152.310 E0.107
G1 X151.896 Y152.394 E0.107
G1 X151.846 Y152.476 E0.107
G1 X151.793 Y152.555 E0.107
G1 X151.737 Y152.632 E0.107
G1 X151.677 Y152.707 E0.107
G1 X151.614 Y152.779 E0.107
G1 X151.548 Y152.848 E0.107
G1 X151.479 Y152.914 E0.107
G1 X151.407 Y152.977 E0.107
G1 X151.333 Y153.036 E0.107
G1 X151.256 Y153.093 E0.107
G1 X151.176 Y153.146 E0.107
G1 X151.095 Y153.195 E0.107
G1 X151.011 Y153.241 E0.107
G1 X150.925 Y153.284 E0.107
G1 X150.838 Y153.322 E0.107
G1 X150.749 Y153.357 E0.107
G1 X150.658 Y153.387 E0.107
G1 X150.567 Y153.414 E0.107
G1 X150.474 Y153.437 E0.107
G1 X150.380 Y153.456 E0.107
G1 X150.286 Y153.470 E0.107
G1 X150.191 Y153.480 E0.107
G1 X150.095 Y153.487 E0.107
G1 X150.000 Y153.489 E0.107
G1 X149.905 Y153.487 E0.107
G1 X149.809 Y153.480 E0.107
G1 X149.714 Y153.470 E0.107
G1 X149.620 Y153.456 E0.107
G1 X149.526 Y153.437 E0.107
G1 X149.433 Y153.414 E0.107
G1 X149.342 Y153.387 E0.107
G1 X149.251 Y153.357 E0.107
G1 X149.162 Y153.322 E0.107
G1 X149.075 Y153.284 E0.107
G1 X148.989 Y153.241 E0.107
G1 X148.905 Y153.195 E0.107
G1 X148.824 Y153.146 E0.107
G1 X148.744 Y153.093 E0.107
G1 X148.667 Y153.036 E0.107
G1 X148.593 Y152.977 E0.107
G1 X148.521 Y152.914 E0.107
G1 X148.452 Y152.848 E0.107
G1 X148.386 Y152.779 E0.107
G1 X148.323 Y152.707 E0.107
G1 X148.263 Y152.632 E0.107
G1 X148.207 Y152.555 E0.107
G1 X148.154 Y152.476 E0.107
G1 X148.104 Y152.394 E0.107
G1 X148.058 Y152.310 E0.107
G1 X148.016 Y152.225 E0.107
G1 X147.977 Y152.137 E0.107
G1 X147.943 Y152.048 E0.107
G1 X147.912 Y151.958 E0.107
G1 X147.885 Y151.866 E0.107
G1 X147.863 Y151.773 E0.107
G1 X147.844 Y151.680 E0.107
G1 X147.830 Y151.585 E0.107
G1 X147.819 Y151.490 E0.107
G1 X147.813 Y151.395 E0.107
G1 X147.811 Y151.300 E0.107
G1 X147.813 Y151.204 E0.107
G1 X147.819 Y151.109 E0.107
G1 X147.830 Y151.014 E0.107
G1 X147.844 Y150.919 E0.107
G1 X147.863 Y150.826 E0.107
G1 X147.885 Y150.733 E0.107
G1 X147.912 Y150.641 E0.107
G1 X147.943 Y150.551 E0.107
G1 X147.977 Y150.462 E0.107
G1 X148.016 Y150.374 E0.107
G1 X148.058 Y150.289 E0.107
G1 X148.104 Y150.205 E0.107
G1 X148.154 Y150.123 E0.107
G1 X148.207 Y150.044 E0.107
G1 X148.263 Y149.967 E0.107
G1 X148.323 Y149.892 E0.107
G1 X148.386 Y149.821 E0.107
G1 X148.452 Y149.752 E0.107
G1 X148.521 Y149.686 E0.107
G1 X148.593 Y149.623 E0.107
G1 X148.667 Y149.563 E0.107
G1 X148.744 Y149.506 E0.107
G1 X148.824 Y149.453 E0.107
G1 X148.905 Y149.404 E0.107
G1 X148.989 Y149.358 E0.107
G1 X149.075 Y149.315 E0.107
G1 X149.162 Y149.277 E0.107
G1 X149.251 Y149.242 E0.107
G1 X149.342 Y149.212 E0.107
G1 X149.433 Y149.185 E0.107
G1 X149.526 Y149.162 E0.107
G1 X149.620 Y149.144 E0.107
G1 X149.714 Y149.129 E0.107
G1 X149.809 Y149.119 E0.107
G1 X149.905 Y149.112 E0.107
G1 X150.000 Y149.110 E0.107
G1 X150.095 Y149.112 E0.107
G1 X153.778 Y127.169
G1 F3600    ;set extrusion feedrate
G1 X154.156 Y127.008 E0.461
G1 X154.712 Y126.798 E0.667
G1 X155.277 Y126.612 E0.667
G1 X155.849 Y126.450 E0.667
G1 X156.427 Y126.312 E0.667
G1 X157.010 Y126.199 E0.667
G1 X157.598 Y126.111 E0.667
G1 X158.189 Y126.048 E0.667
G1 X158.783 Y126.011 E0.667
G1 X159.379 Y125.998 E0.670
G1 X159.988 Y126.011 E0.683
G1 X160.597 Y126.051 E0.686
G1 X161.204 Y126.118 E0.686
G1 X161.808 Y126.211 E0.686
G1 X162.407 Y126.330 E0.686
G1 X163.001 Y126.475 E0.686
G1 X163.587 Y126.646 E0.686
G1 X164.166 Y126.842 E0.686
G1 X164.735 Y127.064 E0.686
G1 X165.294 Y127.310 E0.686
G1 X165.842 Y127.580 E0.686
G1 X166.378 Y127.874 E0.686
G1 X166.900 Y128.191 E0.686
G1 X167.408 Y128.530 E0.686
G1 X167.901 Y128.891 E0.686
G1 X168.377 Y129.274 E0.686
G1 X168.837 Y129.677 E0.686
G1 X169.278 Y130.099 E0.686
G1 X169.700 Y130.540 E0.686
G1 X170.103 Y131.000 E0.686
G1 X170.485 Y131.476 E0.686
G1 X170.847 Y131.969 E0.686
G1 X171.186 Y132.477 E0.686
G1 X171.503 Y132.999 E0.686
G1 X171.797 Y133.535 E0.686
G1 X172.067 Y134.082 E0.686
G1 X172.313 Y134.642 E0.686
G1 X172.534 Y135.211 E0.686
G1 X172.731 Y135.789 E0.686
G1 X172.902 Y136.376 E0.686
G1 X173.047 Y136.969 E0.686
G1 X173.166 Y137.569 E0.686
G1 X173.259 Y138.172 E0.686
G1 X173.326 Y138.780 E0.686
G1 X173.366 Y139.389 E0.686
G1 X173.377 Y139.902 E0.576
G1 X173.377 Y172.778 E36.904
G1 X157.986 Y175.032 E17.461
G1 X156.761 Y170.941 E4.794
G1 X149.905 Y178.105 E11.131
G1 X143.140 Y170.827 E11.154
G1 X141.666 Y175.131 E5.106
G1 X126.623 Y172.625 E17.118
G1 X126.623 Y139.904 E36.730
G1 X126.634 Y139.406 E0.560
G1 X126.672 Y138.813 E0.667
G1 X126.735 Y138.222 E0.667
G1 X126.823 Y137.634 E0.667
G1 X126.935 Y137.050 E0.667
G1 X127.073 Y136.472 E0.667
G1 X127.235 Y135.900 E0.667
G1 X127.421 Y135.335 E0.667
G1 X127.631 Y134.779 E0.667
G1 X127.864 Y134.233 E0.667
G1 X128.120 Y133.696 E0.667
G1 X128.399 Y133.171 E0.667
G1 X128.700 Y132.659 E0.667
G1 X129.022 Y132.159 E0.667
G1 X129.366 Y131.674 E0.667
G1 X129.729 Y131.204 E0.667
G1 X130.112 Y130.749 E0.667
G1 X130.514 Y130.311 E0.667
G1 X130.935 Y129.891 E0.667
G1 X131.372 Y129.489 E0.667
G1 X131.827 Y129.106 E0.667
G1 X132.297 Y128.742 E0.667
G1 X132.782 Y128.399 E0.667
G1 X133.282 Y128.077 E0.667
G1 X133.795 Y127.776 E0.667
G1 X134.319 Y127.497 E0.667
G1 X134.856 Y127.241 E0.667
G1 X135.402 Y127.008 E0.667
G1 X135.959 Y126.798 E0.667
G1 X136.523 Y126.612 E0.667
G1 X137.095 Y126.450 E0.667
G1 X137.673 Y126.312 E0.667
G1 X138.257 Y126.199 E0.667
G1 X138.845 Y126.111 E0.667
G1 X139.436 Y126.048 E0.667
G1 X140.029 Y126.011 E0.667
G1 X140.626 Y125.998 E0.670
G1 X141.234 Y126.011 E0.683
G1 X141.844 Y126.051 E0.686
G1 X142.451 Y126.118 E0.686
G1 X143.055 Y126.211 E0.686
G1 X143.654 Y126.330 E0.686
G1 X144.247 Y126.475 E0.686
G1 X144.834 Y126.646 E0.686
G1 X145.412 Y126.842 E0.686
G1 X145.982 Y127.064 E0.686
G1 X146.221 Y127.169 E0.294
G1 X146.537 Y127.077 E0.370
G1 X147.104 Y126.938 E0.655
G1 X147.677 Y126.824 E0.655
G1 X148.254 Y126.736 E0.655
G1 X148.834 Y126.672 E0.655
G1 X149.416 Y126.634 E0.655
G1 X150.000 Y126.621 E0.655
G1 X150.584 Y126.634 E0.655
G1 X151.166 Y126.672 E0.655
G1 X151.746 Y126.736 E0.655
G1 X152.323 Y126.824 E0.655
G1 X152.896 Y126.938 E0.655
G1 X153.463 Y127.077 E0.655
G1 X153.778 Y127.169 E0.369
G1 X154.845 Y129.975
G1 F3600    ;set extrusion feedrate
G1 X155.275 Y129.792 E0.524
G1 X155.712 Y129.627 E0.524
G1 X156.155 Y129.481 E0.524
G1 X156.605 Y129.354 E0.524
G1 X157.059 Y129.246 E0.524
G1 X157.518 Y129.157 E0.524
G1 X157.979 Y129.088 E0.524
G1 X158.444 Y129.038 E0.524
G1 X158.910 Y129.009 E0.524
G1 X159.379 Y128.999 E0.526
G1 X159.857 Y129.009 E0.537
G1 X160.336 Y129.040 E0.539
G1 X160.813 Y129.093 E0.539
G1 X161.287 Y129.166 E0.539
G1 X161.758 Y129.259 E0.539
G1 X162.224 Y129.373 E0.539
G1 X162.685 Y129.508 E0.539
G1 X163.139 Y129.662 E0.539
G1 X163.587 Y129.836 E0.539
G1 X164.026 Y130.029 E0.539
G1 X164.457 Y130.242 E0.539
G1 X164.877 Y130.472 E0.539
G1 X165.288 Y130.721 E0.539
G1 X165.687 Y130.988 E0.539
G1 X166.074 Y131.272 E0.539
G1 X166.448 Y131.572 E0.539
G1 X166.809 Y131.889 E0.539
G1 X167.156 Y132.221 E0.539
G1 X167.488 Y132.568 E0.539
G1 X167.804 Y132.928 E0.539
G1 X168.105 Y133.303 E0.539
G1 X168.389 Y133.690 E0.539
G1 X168.655 Y134.089 E0.539
G1 X168.904 Y134.499 E0.539
G1 X169.135 Y134.920 E0.539
G1 X169.347 Y135.351 E0.539
G1 X169.541 Y135.790 E0.539
G1 X169.715 Y136.237 E0.539
G1 X169.869 Y136.692 E0.539
G1 X170.003 Y137.153 E0.539
G1 X170.117 Y137.619 E0.539
G1 X170.211 Y138.090 E0.539
G1 X170.284 Y138.564 E0.539
G1 X170.336 Y139.041 E0.539
G1 X170.368 Y139.520 E0.539
G1 X170.377 Y139.935 E0.465
G1 X170.377 Y170.185 E33.957
G1 X160.116 Y171.688 E11.641
G1 X158.156 Y165.143 E7.669
G1 X149.937 Y173.733 E13.345
G1 X141.926 Y165.115 E13.207
G1 X139.652 Y171.754 E7.877
G1 X129.623 Y170.083 E11.412
G1 X129.623 Y139.936 E33.841
G1 X129.632 Y139.533 E0.453
G1 X129.662 Y139.067 E0.524
G1 X129.711 Y138.603 E0.524
G1 X129.780 Y138.141 E0.524
G1 X129.869 Y137.682 E0.524
G1 X129.977 Y137.228 E0.524
G1 X130.104 Y136.779 E0.524
G1 X130.250 Y136.335 E0.524
G1 X130.415 Y135.898 E0.524
G1 X130.598 Y135.469 E0.524
G1 X130.800 Y135.047 E0.524
G1 X131.019 Y134.635 E0.524
G1 X131.255 Y134.232 E0.524
G1 X131.508 Y133.840 E0.524
G1 X131.778 Y133.458 E0.524
G1 X132.064 Y133.089 E0.524
G1 X132.365 Y132.732 E0.524
G1 X132.681 Y132.388 E0.524
G1 X133.011 Y132.058 E0.524
G1 X133.355 Y131.742 E0.524
G1 X133.712 Y131.441 E0.524
G1 X134.081 Y131.155 E0.524
G1 X134.463 Y130.885 E0.524
G1 X134.855 Y130.632 E0.524
G1 X135.258 Y130.396 E0.524
G1 X135.670 Y130.177 E0.524
G1 X136.092 Y129.975 E0.524
G1 X136.521 Y129.792 E0.524
G1 X136.958 Y129.627 E0.524
G1 X137.402 Y129.481 E0.524
G1 X137.851 Y129.354 E0.524
G1 X138.305 Y129.246 E0.524
G1 X138.764 Y129.157 E0.524
G1 X139.226 Y129.088 E0.524
G1 X139.690 Y129.038 E0.524
G1 X140.156 Y129.009 E0.524
G1 X140.625 Y128.999 E0.526
G1 X141.103 Y129.009 E0.537
G1 X141.582 Y129.040 E0.539
G1 X142.059 Y129.093 E0.539
G1 X142.534 Y129.166 E0.539
G1 X143.004 Y129.259 E0.539
G1 X143.471 Y129.373 E0.539
G1 X143.931 Y129.508 E0.539
G1 X144.386 Y129.662 E0.539
G1 X144.833 Y129.836 E0.539
G1 X145.273 Y130.029 E0.539
G1 X145.703 Y130.242 E0.539
G1 X146.020 Y130.415 E0.406
G1 X146.028 Y130.412 E0.010
G1 X146.450 Y130.248 E0.508
G1 X146.879 Y130.102 E0.508
G1 X147.314 Y129.975 E0.508
G1 X147.754 Y129.868 E0.508
G1 X148.198 Y129.779 E0.508
G1 X148.645 Y129.711 E0.508
G1 X149.095 Y129.661 E0.508
G1 X149.547 Y129.632 E0.508
G1 X150.000 Y129.622 E0.508
G1 X150.453 Y129.632 E0.508
G1 X150.905 Y129.661 E0.508
G1 X151.355 Y129.711 E0.508
G1 X151.802 Y129.779 E0.508
G1 X152.246 Y129.868 E0.508
G1 X152.686 Y129.975 E0.508
G1 X153.121 Y130.102 E0.508
G1 X153.550 Y130.248 E0.508
G1 X153.972 Y130.412 E0.508
G1 X153.979 Y130.415 E0.009
G1 X154.011 Y130.396 E0.043
G1 X154.424 Y130.177 E0.524
G1 X154.845 Y129.975 E0.524
G1 X156.081 Y132.710
G1 F3600    ;set extrusion feedrate
G1 X156.394 Y132.576 E0.381
G1 X156.711 Y132.456 E0.381
G1 X157.034 Y132.350 E0.381
G1 X157.361 Y132.257 E0.381
G1 X157.691 Y132.179 E0.381
G1 X158.025 Y132.114 E0.381
G1 X158.361 Y132.064 E0.381
G1 X158.698 Y132.028 E0.381
G1 X159.037 Y132.007 E0.381
G1 X159.378 Y131.999 E0.382
G1 X159.726 Y132.007 E0.391
G1 X160.074 Y132.030 E0.392
G1 X160.421 Y132.068 E0.392
G1 X160.766 Y132.121 E0.392
G1 X161.108 Y132.189 E0.392
G1 X161.448 Y132.272 E0.392
G1 X161.783 Y132.370 E0.392
G1 X162.113 Y132.482 E0.392
G1 X162.439 Y132.608 E0.392
G1 X162.758 Y132.749 E0.392
G1 X163.071 Y132.903 E0.392
G1 X163.377 Y133.071 E0.392
G1 X163.676 Y133.252 E0.392
G1 X163.966 Y133.446 E0.392
G1 X164.247 Y133.653 E0.392
G1 X164.520 Y133.871 E0.392
G1 X164.782 Y134.101 E0.392
G1 X165.034 Y134.343 E0.392
G1 X165.276 Y134.595 E0.392
G1 X165.506 Y134.857 E0.392
G1 X165.724 Y135.129 E0.392
G1 X165.931 Y135.411 E0.392
G1 X166.125 Y135.701 E0.392
G1 X166.306 Y136.000 E0.392
G1 X166.473 Y136.306 E0.392
G1 X166.628 Y136.619 E0.392
G1 X166.768 Y136.938 E0.392
G1 X166.895 Y137.264 E0.392
G1 X167.007 Y137.594 E0.392
G1 X167.105 Y137.929 E0.392
G1 X167.188 Y138.268 E0.392
G1 X167.256 Y138.611 E0.392
G1 X167.309 Y138.956 E0.392
G1 X167.347 Y139.303 E0.392
G1 X167.370 Y139.651 E0.392
G1 X167.377 Y139.967 E0.355
G1 X167.377 Y167.593 E31.010
G1 X162.246 Y168.344 E5.820
G1 X159.552 Y159.346 E10.544
G1 X149.969 Y169.360 E15.560
G1 X140.712 Y159.403 E15.261
G1 X137.637 Y168.377 E10.648
G1 X132.623 Y167.542 E5.706
G1 X132.623 Y139.968 E30.952
G1 X132.630 Y139.660 E0.346
G1 X132.651 Y139.321 E0.381
G1 X132.687 Y138.984 E0.381
G1 X132.738 Y138.648 E0.381
G1 X132.802 Y138.314 E0.381
G1 X132.881 Y137.984 E0.381
G1 X132.973 Y137.657 E0.381
G1 X133.080 Y137.335 E0.381
G1 X133.199 Y137.017 E0.381
G1 X133.333 Y136.705 E0.381
G1 X133.479 Y136.398 E0.381
G1 X133.639 Y136.098 E0.381
G1 X133.810 Y135.805 E0.381
G1 X133.995 Y135.520 E0.381
G1 X134.191 Y135.243 E0.381
G1 X134.398 Y134.974 E0.381
G1 X134.617 Y134.714 E0.381
G1 X134.847 Y134.464 E0.381
G1 X135.087 Y134.224 E0.381
G1 X135.337 Y133.994 E0.381
G1 X135.597 Y133.775 E0.381
G1 X135.866 Y133.567 E0.381
G1 X136.143 Y133.371 E0.381
G1 X136.428 Y133.187 E0.381
G1 X136.721 Y133.015 E0.381
G1 X137.021 Y132.856 E0.381
G1 X137.328 Y132.710 E0.381
G1 X137.640 Y132.576 E0.381
G1 X137.958 Y132.456 E0.381
G1 X138.280 Y132.350 E0.381
G1 X138.607 Y132.257 E0.381
G1 X138.938 Y132.179 E0.381
G1 X139.271 Y132.114 E0.381
G1 X139.607 Y132.064 E0.381
G1 X139.945 Y132.028 E0.381
G1 X140.284 Y132.007 E0.381
G1 X140.624 Y131.999 E0.382
G1 X140.972 Y132.007 E0.391
G1 X141.321 Y132.030 E0.392
G1 X141.668 Y132.068 E0.392
G1 X142.013 Y132.121 E0.392
G1 X142.355 Y132.189 E0.392
G1 X142.694 Y132.272 E0.392
G1 X143.029 Y132.370 E0.392
G1 X143.360 Y132.482 E0.392
G1 X143.685 Y132.608 E0.392
G1 X144.004 Y132.749 E0.392
G1 X144.318 Y132.903 E0.392
G1 X144.624 Y133.071 E0.392
G1 X144.922 Y133.252 E0.392
G1 X145.212 Y133.446 E0.392
G1 X145.494 Y133.653 E0.392
G1 X145.766 Y133.871 E0.392
G1 X145.822 Y133.921 E0.084
G1 X146.036 Y133.778 E0.288
G1 X146.311 Y133.611 E0.361
G1 X146.593 Y133.456 E0.361
G1 X146.882 Y133.314 E0.361
G1 X147.177 Y133.184 E0.361
G1 X147.477 Y133.067 E0.361
G1 X147.782 Y132.964 E0.361
G1 X148.091 Y132.874 E0.361
G1 X148.403 Y132.797 E0.361
G1 X148.719 Y132.735 E0.361
G1 X149.037 Y132.686 E0.361
G1 X149.357 Y132.651 E0.361
G1 X149.678 Y132.630 E0.361
G1 X150.000 Y132.623 E0.361
G1 X150.322 Y132.630 E0.361
G1 X150.643 Y132.651 E0.361
G1 X150.963 Y132.686 E0.361
G1 X151.281 Y132.735 E0.361
G1 X151.597 Y132.797 E0.361
G1 X151.909 Y132.874 E0.361
G1 X152.218 Y132.964 E0.361
G1 X152.523 Y133.067 E0.361
G1 X152.823 Y133.184 E0.361
G1 X153.118 Y133.314 E0.361
G1 X153.407 Y133.456 E0.361
G1 X153.689 Y133.611 E0.361
G1 X153.964 Y133.778 E0.361
G1 X154.178 Y133.921 E0.289
G1 X154.351 Y133.775 E0.254
G1 X154.619 Y133.567 E0.381
G1 X154.897 Y133.371 E0.381
G1 X155.182 Y133.187 E0.381
G1 X155.475 Y133.015 E0.381
G1 X155.775 Y132.856 E0.381
G1 X156.081 Y132.710 E0.381
G1 X157.317 Y135.444
G1 F3600    ;set extrusion feedrate
G1 X157.512 Y135.361 E0.238
G1 X157.711 Y135.286 E0.238
G1 X157.913 Y135.219 E0.238
G1 X158.117 Y135.161 E0.238
G1 X158.323 Y135.112 E0.238
G1 X158.532 Y135.072 E0.238
G1 X158.742 Y135.040 E0.238
G1 X158.953 Y135.018 E0.238
G1 X159.165 Y135.005 E0.238
G1 X159.377 Y135.000 E0.238
G1 X159.595 Y135.005 E0.245
G1 X159.813 Y135.019 E0.245
G1 X160.029 Y135.043 E0.245
G1 X160.245 Y135.076 E0.245
G1 X160.459 Y135.119 E0.245
G1 X160.671 Y135.170 E0.245
G1 X160.880 Y135.231 E0.245
G1 X161.087 Y135.302 E0.245
G1 X161.290 Y135.381 E0.245
G1 X161.490 Y135.468 E0.245
G1 X161.686 Y135.565 E0.245
G1 X161.877 Y135.670 E0.245
G1 X162.063 Y135.783 E0.245
G1 X162.245 Y135.904 E0.245
G1 X162.421 Y136.033 E0.245
G1 X162.591 Y136.170 E0.245
G1 X162.755 Y136.314 E0.245
G1 X162.912 Y136.464 E0.245
G1 X163.063 Y136.622 E0.245
G1 X163.207 Y136.786 E0.245
G1 X163.344 Y136.956 E0.245
G1 X163.473 Y137.132 E0.245
G1 X163.594 Y137.314 E0.245
G1 X163.707 Y137.500 E0.245
G1 X163.812 Y137.691 E0.245
G1 X163.908 Y137.887 E0.245
G1 X163.996 Y138.087 E0.245
G1 X164.075 Y138.290 E0.245
G1 X164.145 Y138.496 E0.245
G1 X164.206 Y138.706 E0.245
G1 X164.258 Y138.918 E0.245
G1 X164.301 Y139.132 E0.245
G1 X164.334 Y139.347 E0.245
G1 X164.358 Y139.564 E0.245
G1 X164.372 Y139.782 E0.245
G1 X164.377 Y140.000 E0.245
G1 X164.377 Y165.000 E28.063
G1 X160.948 Y153.548 E13.419
G1 X150.000 Y164.988 E17.775
G1 X139.498 Y153.691 E17.315
G1 X135.623 Y165.000 E13.419
G1 X135.623 Y140.000 E28.063
G1 X135.628 Y139.788 E0.238
G1 X135.641 Y139.576 E0.238
G1 X135.664 Y139.365 E0.238
G1 X135.695 Y139.155 E0.238
G1 X135.735 Y138.947 E0.238
G1 X135.785 Y138.740 E0.238
G1 X135.842 Y138.536 E0.238
G1 X135.909 Y138.334 E0.238
G1 X135.984 Y138.136 E0.238
G1 X136.067 Y137.940 E0.238
G1 X136.159 Y137.749 E0.238
G1 X136.258 Y137.562 E0.238
G1 X136.366 Y137.378 E0.238
G1 X136.481 Y137.200 E0.238
G1 X136.603 Y137.027 E0.238
G1 X136.733 Y136.859 E0.238
G1 X136.870 Y136.697 E0.238
G1 X137.013 Y136.540 E0.238
G1 X137.164 Y136.390 E0.238
G1 X137.320 Y136.247 E0.238
G1 X137.482 Y136.110 E0.238
G1 X137.650 Y135.980 E0.238
G1 X137.823 Y135.857 E0.238
G1 X138.002 Y135.742 E0.238
G1 X138.185 Y135.635 E0.238
G1 X138.372 Y135.535 E0.238
G1 X138.564 Y135.444 E0.238
G1 X138.759 Y135.361 E0.238
G1 X138.958 Y135.286 E0.238
G1 X139.159 Y135.219 E0.238
G1 X139.363 Y135.161 E0.238
G1 X139.570 Y135.112 E0.238
G1 X139.778 Y135.072 E0.238
G1 X139.988 Y135.040 E0.238
G1 X140.199 Y135.018 E0.238
G1 X140.411 Y135.005 E0.238
G1 X140.623 Y135.000 E0.238
G1 X140.841 Y135.005 E0.245
G1 X141.059 Y135.019 E0.245
G1 X141.276 Y135.043 E0.245
G1 X141.491 Y135.076 E0.245
G1 X141.705 Y135.119 E0.245
G1 X141.917 Y135.170 E0.245
G1 X142.127 Y135.231 E0.245
G1 X142.333 Y135.302 E0.245
G1 X142.537 Y135.381 E0.245
G1 X142.736 Y135.468 E0.245
G1 X142.932 Y135.565 E0.245
G1 X143.123 Y135.670 E0.245
G1 X143.310 Y135.783 E0.245
G1 X143.491 Y135.904 E0.245
G1 X143.667 Y136.033 E0.245
G1 X143.837 Y136.170 E0.245
G1 X144.001 Y136.314 E0.245
G1 X144.159 Y136.464 E0.245
G1 X144.310 Y136.622 E0.245
G1 X144.453 Y136.786 E0.245
G1 X144.590 Y136.956 E0.245
G1 X144.719 Y137.132 E0.245
G1 X144.840 Y137.314 E0.245
G1 X144.953 Y137.500 E0.245
G1 X145.058 Y137.691 E0.245
G1 X145.155 Y137.887 E0.245
G1 X145.243 Y138.087 E0.245
G1 X145.322 Y138.290 E0.245
G1 X145.392 Y138.496 E0.245
G1 X145.453 Y138.706 E0.245
G1 X145.505 Y138.918 E0.245
G1 X145.547 Y139.132 E0.245
G1 X145.580 Y139.347 E0.245
G1 X145.604 Y139.564 E0.245
G1 X145.618 Y139.782 E0.245
G1 X145.623 Y140.000 E0.245
G1 X145.627 Y139.809 E0.214
G1 X145.640 Y139.619 E0.214
G1 X145.661 Y139.429 E0.214
G1 X145.690 Y139.240 E0.214
G1 X145.727 Y139.053 E0.214
G1 X145.772 Y138.867 E0.214
G1 X145.826 Y138.684 E0.214
G1 X145.887 Y138.503 E0.214
G1 X145.956 Y138.325 E0.214
G1 X146.033 Y138.150 E0.214
G1 X146.118 Y137.979 E0.214
G1 X146.210 Y137.812 E0.214
G1 X146.309 Y137.648 E0.214
G1 X146.415 Y137.490 E0.214
G1 X146.528 Y137.336 E0.214
G1 X146.647 Y137.187 E0.214
G1 X146.773 Y137.043 E0.214
G1 X146.905 Y136.905 E0.214
G1 X147.043 Y136.773 E0.214
G1 X147.187 Y136.647 E0.214
G1 X147.336 Y136.528 E0.214
G1 X147.490 Y136.415 E0.214
G1 X147.648 Y136.309 E0.214
G1 X147.812 Y136.210 E0.214
G1 X147.979 Y136.118 E0.214
G1 X148.150 Y136.033 E0.214
G1 X148.325 Y135.956 E0.214
G1 X148.503 Y135.887 E0.214
G1 X148.684 Y135.826 E0.214
G1 X148.867 Y135.772 E0.214
G1 X149.053 Y135.727 E0.214
G1 X149.240 Y135.690 E0.214
G1 X149.429 Y135.661 E0.214
G1 X149.619 Y135.640 E0.214
G1 X149.809 Y135.627 E0.214
G1 X150.000 Y135.623 E0.214
G1 X150.191 Y135.627 E0.214
G1 X150.381 Y135.640 E0.214
G1 X150.571 Y135.661 E0.214
G1 X150.760 Y135.690 E0.214
G1 X150.947 Y135.727 E0.214
G1 X151.133 Y135.772 E0.214
G1 X151.316 Y135.826 E0.214
G1 X151.497 Y135.887 E0.214
G1 X151.675 Y135.956 E0.214
G1 X151.850 Y136.033 E0.214
G1 X152.021 Y136.118 E0.214
G1 X152.188 Y136.210 E0.214
G1 X152.352 Y136.309 E0.214
G1 X152.510 Y136.415 E0.214
G1 X152.664 Y136.528 E0.214
G1 X152.813 Y136.647 E0.214
G1 X152.957 Y136.773 E0.214
G1 X153.095 Y136.905 E0.214
G1 X153.227 Y137.043 E0.214
G1 X153.353 Y137.187 E0.214
G1 X153.472 Y137.336 E0.214
G1 X153.585 Y137.490 E0.214
G1 X153.691 Y137.648 E0.214
G1 X153.790 Y137.812 E0.214
G1 X153.882 Y137.979 E0.214
G1 X153.967 Y138.150 E0.214
G1 X154.044 Y138.325 E0.214
G1 X154.113 Y138.503 E0.214
G1 X154.174 Y138.684 E0.214
G1 X154.228 Y138.867 E0.214
G1 X154.273 Y139.053 E0.214
G1 X154.310 Y139.240 E0.214
G1 X154.339 Y139.429 E0.214
G1 X154.360 Y139.619 E0.214
G1 X154.373 Y139.809 E0.214
G1 X154.377 Y140.000 E0.214
G1 X154.381 Y139.788 E0.238
G1 X154.395 Y139.576 E0.238
G1 X154.417 Y139.365 E0.238
G1 X154.449 Y139.155 E0.238
G1 X154.489 Y138.947 E0.238
G1 X154.538 Y138.740 E0.238
G1 X154.596 Y138.536 E0.238
G1 X154.662 Y138.334 E0.238
G1 X154.737 Y138.136 E0.238
G1 X154.821 Y137.940 E0.238
G1 X154.912 Y137.749 E0.238
G1 X155.012 Y137.562 E0.238
G1 X155.119 Y137.378 E0.238
G1 X155.234 Y137.200 E0.238
G1 X155.357 Y137.027 E0.238
G1 X155.487 Y136.859 E0.238
G1 X155.623 Y136.697 E0.238
G1 X155.767 Y136.540 E0.238
G1 X155.917 Y136.390 E0.238
G1 X156.073 Y136.247 E0.238
G1 X156.236 Y136.110 E0.238
G1 X156.404 Y135.980 E0.238
G1 X156.577 Y135.857 E0.238
G1 X156.755 Y135.742 E0.238
G1 X156.938 Y135.635 E0.238
G1 X157.126 Y135.535 E0.238
G1 X157.317 Y135.444 E0.238
G1 X157.317 Y135.444 Z4.500
G1 F3600    ;set extrusion feedrate
G1 X157.194 Y135.503 E0.153
G1 X157.126 Y135.535 E0.085
G1 X157.005 Y135.599 E0.153
G1 X156.938 Y135.635 E0.085
G1 X156.821 Y135.704 E0.153
G1 X156.755 Y135.742 E0.085
G1 X156.641 Y135.816 E0.153
G1 X156.577 Y135.857 E0.085
G1 X156.466 Y135.936 E0.153
G1 X156.404 Y135.980 E0.085
G1 X156.296 Y136.063 E0.153
G1 X156.236 Y136.110 E0.085
G1 X156.131 Y136.198 E0.153
G1 X156.073 Y136.247 E0.085
G1 X155.973 Y136.339 E0.153
G1 X155.917 Y136.390 E0.085
G1 X155.821 Y136.487 E0.153
G1 X155.767 Y136.540 E0.085
G1 X155.675 Y136.641 E0.153
G1 X155.623 Y136.697 E0.085
G1 X155.535 Y136.801 E0.153
G1 X155.487 Y136.859 E0.085
G1 X155.403 Y136.967 E0.153
G1 X155.357 Y137.027 E0.085
G1 X155.278 Y137.138 E0.153
G1 X155.234 Y137.200 E0.085
G1 X155.160 Y137.315 E0.153
G1 X155.119 Y137.378 E0.085
G1 X155.050 Y137.496 E0.153
G1 X155.012 Y137.562 E0.085
G1 X154.948 Y137.682 E0.153
G1 X154.912 Y137.749 E0.085
G1 X154.853 Y137.872 E0.153
G1 X154.821 Y137.940 E0.085
G1 X154.767 Y138.066 E0.153
G1 X154.737 Y138.136 E0.085
G1 X154.689 Y138.263 E0.153
G1 X154.662 Y138.334 E0.085
G1 X154.620 Y138.464 E0.153
G1 X154.596 Y138.536 E0.085
G1 X154.559 Y138.667 E0.153
G1 X154.538 Y138.740 E0.085
G1 X154.507 Y138.873 E0.153
G1 X154.489 Y138.947 E0.085
G1 X154.463 Y139.081 E0.153
G1 X154.449 Y139.155 E0.085
G1 X154.428 Y139.290 E0.153
G1 X154.417 Y139.365 E0.085
G1 X154.403 Y139.501 E0.153
G1 X154.395 Y139.576 E0.085
G1 X154.386 Y139.712 E0.153
G1 X154.381 Y139.788 E0.085
G1 X154.378 Y139.924 E0.153
G1 X154.377 Y140.000 E0.085
G1 X154.374 Y139.877 E0.138
G1 X154.373 Y139.809 E0.077
G1 X154.365 Y139.687 E0.138
G1 X154.360 Y139.619 E0.077
G1 X154.347 Y139.497 E0.138
G1 X154.339 Y139.429 E0.077
G1 X154.321 Y139.307 E0.138
G1 X154.310 Y139.240 E0.077
G1 X154.286 Y139.120 E0.138
G1 X154.273 Y139.053 E0.077
G1 X154.244 Y138.933 E0.138
G1 X154.228 Y138.867 E0.077
G1 X154.193 Y138.749 E0.138
G1 X154.174 Y138.684 E0.077
G1 X154.135 Y138.568 E0.138
G1 X154.113 Y138.503 E0.077
G1 X154.068 Y138.389 E0.138
G1 X154.044 Y138.325 E0.077
G1 X153.994 Y138.213 E0.138
G1 X153.967 Y138.150 E0.077
G1 X153.912 Y138.040 E0.138
G1 X153.882 Y137.979 E0.077
G1 X153.823 Y137.871 E0.138
G1 X153.790 Y137.812 E0.077
G1 X153.727 Y137.707 E0.138
G1 X153.691 Y137.648 E0.077
G1 X153.623 Y137.546 E0.138
G1 X153.585 Y137.490 E0.077
G1 X153.513 Y137.391 E0.138
G1 X153.472 Y137.336 E0.077
G1 X153.395 Y137.240 E0.138
G1 X153.353 Y137.187 E0.077
G1 X153.272 Y137.094 E0.138
G1 X153.227 Y137.043 E0.077
G1 X153.142 Y136.954 E0.138
G1 X153.095 Y136.905 E0.077
G1 X153.006 Y136.820 E0.138
G1 X152.957 Y136.773 E0.077
G1 X152.865 Y136.692 E0.138
G1 X152.813 Y136.647 E0.077
G1 X152.718 Y136.570 E0.138
G1 X152.664 Y136.528 E0.077
G1 X152.565 Y136.455 E0.138
G1 X152.510 Y136.415 E0.077
G1 X152.408 Y136.347 E0.138
G1 X152.352 Y136.309 E0.077
G1 X152.247 Y136.245 E0.138
G1 X152.188 Y136.210 E0.077
G1 X152.081 Y136.151 E0.138
G1 X152.021 Y136.118 E0.077
G1 X151.911 Y136.063 E0.138
G1 X151.850 Y136.033 E0.077
G1 X151.737 Y135.984 E0.138
G1 X151.675 Y135.956 E0.077
G1 X151.561 Y135.912 E0.138
G1 X151.497 Y135.887 E0.077
G1 X151.381 Y135.848 E0.138
G1 X151.316 Y135.826 E0.077
G1 X151.198 Y135.791 E0.138
G1 X151.133 Y135.772 E0.077
G1 X151.014 Y135.743 E0.138
G1 X150.947 Y135.727 E0.077
G1 X150.827 Y135.703 E0.138
G1 X150.760 Y135.690 E0.077
G1 X150.639 Y135.671 E0.138
G1 X150.571 Y135.661 E0.077
G1 X150.449 Y135.647 E0.138
G1 X150.381 Y135.640 E0.077
G1 X150.259 Y135.632 E0.138
G1 X150.191 Y135.627 E0.077
G1 X150.068 Y135.625 E0.138
G1 X150.000 Y135.623 E0.077
G1 X149.877 Y135.626 E0.138
G1 X149.809 Y135.627 E0.077
G1 X149.687 Y135.635 E0.138
G1 X149.619 Y135.640 E0.077
G1 X149.497 Y135.653 E0.138
G1 X149.429 Y135.661 E0.077
G1 X149.307 Y135.679 E0.138
G1 X149.240 Y135.690 E0.077
G1 X149.120 Y135.714 E0.138
G1 X149.053 Y135.727 E0.077
G1 X148.933 Y135.756 E0.138
G1 X148.867 Y135.772 E0.077
G1 X148.749 Y135.807 E0.138
G1 X148.684 Y135.826 E0.077
G1 X148.568 Y135.865 E0.138
G1 X148.503 Y135.887 E0.077
G1 X148.389 Y135.932 E0.138
G1 X148.325 Y135.956 E0.077
G1 X148.213 Y136.006 E0.138
G1 X148.150 Y136.033 E0.077
G1 X148.040 Y136.088 E0.138
G1 X147.979 Y136.118 E0.077
G1 X147.871 Y136.177 E0.138
G1 X147.812 Y136.210 E0.077
G1 X147.707 Y136.273 E0.138
G1 X147.648 Y136.309 E0.077
G1 X147.546 Y136.377 E0.138
G1 X147.490 Y136.415 E0.077
G1 X147.391 Y136.487 E0.138
G1 X147.336 Y136.528 E0.077
G1 X147.240 Y136.605 E0.138
G1 X147.187 Y136.647 E0.077
G1 X147.094 Y136.728 E0.138
G1 X147.043 Y136.773 E0.077
G1 X146.954 Y136.858 E0.138
G1 X146.905 Y136.905 E0.077
G1 X146.820 Y136.994 E0.138
G1 X146.773 Y137.043 E0.077
G1 X146.692 Y137.135 E0.138
G1 X146.647 Y137.187 E0.077
G1 X146.570 Y137.282 E0.138
G1 X146.528 Y137.336 E0.077
G1 X146.455 Y137.435 E0.138
G1 X146.415 Y137.490 E0.077
G1 X146.347 Y137.592 E0.138
G1 X146.309 Y137.648 E0.077
G1 X146.245 Y137.753 E0.138
G1 X146.210 Y137.812 E0.077
G1 X146.151 Y137.919 E0.138
G1 X146.118 Y137.979 E0.077
G1 X146.063 Y138.089 E0.138
G1 X146.033 Y138.150 E0.077
G1 X145.984 Y138.263 E0.138
G1 X145.956 Y138.325 E0.077
G1 X145.912 Y138.439 E0.138
G1 X145.887 Y138.503 E0.077
G1 X145.848 Y138.619 E0.138
G1 X145.826 Y138.684 E0.077
G1 X145.791 Y138.802 E0.138
G1 X145.772 Y138.867 E0.077
G1 X145.743 Y138.986 E0.138
G1 X145.727 Y139.053 E0.077
G1 X145.703 Y139.173 E0.138
G1 X145.690 Y139.240 E0.077
G1 X145.671 Y139.361 E0.138
G1 X145.661 Y139.429 E0.077
G1 X145.647 Y139.551 E0.138
G1 X145.640 Y139.619 E0.077
G1 X145.632 Y139.741 E0.138
G1 X145.627 Y139.809 E0.077
G1 X145.625 Y139.932 E0.138
G1 X145.623 Y140.000 E0.077
G1 X145.620 Y139.860 E0.157
G1 X145.618 Y139.782 E0.087
G1 X145.609 Y139.642 E0.157
G1 X145.604 Y139.564 E0.087
G1 X145.589 Y139.425 E0.157
G1 X145.580 Y139.347 E0.087
G1 X145.559 Y139.209 E0.157
G1 X145.547 Y139.132 E0.087
G1 X145.520 Y138.994 E0.157
G1 X145.505 Y138.918 E0.087
G1 X145.471 Y138.782 E0.157
G1 X145.453 Y138.706 E0.087
G1 X145.414 Y138.571 E0.157
G1 X145.392 Y138.496 E0.087
G1 X145.347 Y138.364 E0.157
G1 X145.322 Y138.290 E0.087
G1 X145.271 Y138.159 E0.157
G1 X145.243 Y138.087 E0.087
G1 X145.186 Y137.958 E0.157
G1 X145.155 Y137.887 E0.087
G1 X145.093 Y137.761 E0.157
G1 X145.058 Y137.691 E0.087
G1 X144.991 Y137.568 E0.157
G1 X144.953 Y137.500 E0.087
G1 X144.881 Y137.380 E0.157
G1 X144.840 Y137.314 E0.087
G1 X144.762 Y137.197 E0.157
G1 X144.719 Y137.132 E0.087
G1 X144.636 Y137.019 E0.157
G1 X144.590 Y136.956 E0.087
G1 X144.502 Y136.847 E0.157
G1 X144.453 Y136.786 E0.087
G1 X144.361 Y136.681 E0.157
G1 X144.310 Y136.622 E0.087
G1 X144.213 Y136.521 E0.157
G1 X144.159 Y136.464 E0.087
G1 X144.057 Y136.367 E0.157
G1 X144.001 Y136.314 E0.087
G1 X143.896 Y136.221 E0.157
G1 X143.837 Y136.170 E0.087
G1 X143.728 Y136.082 E0.157
G1 X143.667 Y136.033 E0.087
G1 X143.554 Y135.950 E0.157
G1 X143.491 Y135.904 E0.087
G1 X143.374 Y135.826 E0.157
G1 X143.310 Y135.783 E0.087
G1 X143.190 Y135.710 E0.157
G1 X143.123 Y135.670 E0.087
G1 X143.000 Y135.602 E0.157
G1 X142.932 Y135.565 E0.087
G1 X142.806 Y135.503 E0.157
G1 X142.736 Y135.468 E0.087
G1 X142.608 Y135.412 E0.157
G1 X142.537 Y135.381 E0.087
G1 X142.406 Y135.330 E0.157
G1 X142.333 Y135.302 E0.087
G1 X142.201 Y135.256 E0.157
G1 X142.127 Y135.231 E0.087
G1 X141.992 Y135.192 E0.157
G1 X141.917 Y135.170 E0.087
G1 X141.781 Y135.137 E0.157
G1 X141.705 Y135.119 E0.087
G1 X141.568 Y135.091 E0.157
G1 X141.491 Y135.076 E0.087
G1 X141.353 Y135.055 E0.157
G1 X141.276 Y135.043 E0.087
G1 X141.136 Y135.028 E0.157
G1 X141.059 Y135.019 E0.087
G1 X140.919 Y135.010 E0.157
G1 X140.841 Y135.005 E0.087
G1 X140.701 Y135.002 E0.157
G1 X140.623 Y135.000 E0.087
G1 X140.487 Y135.003 E0.153
G1 X140.411 Y135.005 E0.085
G1 X140.275 Y135.013 E0.153
G1 X140.199 Y135.018 E0.085
G1 X140.064 Y135.032 E0.153
G1 X139.988 Y135.040 E0.085
G1 X139.853 Y135.061 E0.153
G1 X139.778 Y135.072 E0.085
G1 X139.644 Y135.098 E0.153
G1 X139.570 Y135.112 E0.085
G1 X139.437 Y135.144 E0.153
G1 X139.363 Y135.161 E0.085
G1 X139.232 Y135.199 E0.153
G1 X139.159 Y135.219 E0.085
G1 X139.030 Y135.262 E0.153
G1 X138.958 Y135.286 E0.085
G1 X138.830 Y135.334 E0.153
G1 X138.759 Y135.361 E0.085
G1 X138.633 Y135.414 E0.153
G1 X138.564 Y135.444 E0.085
G1 X138.441 Y135.503 E0.153
G1 X138.372 Y135.535 E0.085
G1 X138.252 Y135.599 E0.153
G1 X138.185 Y135.635 E0.085
G1 X138.067 Y135.704 E0.153
G1 X138.002 Y135.742 E0.085
G1 X137.887 Y135.816 E0.153
G1 X137.823 Y135.857 E0.085
G1 X137.712 Y135.936 E0.153
G1 X137.650 Y135.980 E0.085
G1 X137.542 Y136.063 E0.153
G1 X137.482 Y136.110 E0.085
G1 X137.378 Y136.198 E0.153
G1 X137.320 Y136.247 E0.085
G1 X137.219 Y136.339 E0.153
G1 X137.164 Y136.390 E0.085
G1 X137.067 Y136.487 E0.153
G1 X137.013 Y136.540 E0.085
G1 X136.921 Y136.641 E0.153
G1 X136.870 Y136.697 E0.085
G1 X136.782 Y136.801 E0.153
G1 X136.733 Y136.859 E0.085
G1 X136.650 Y136.967 E0.153
G1 X136.603 Y137.027 E0.085
G1 X136.524 Y137.138 E0.153
G1 X136.481 Y137.200 E0.085
G1 X136.407 Y137.315 E0.153
G1 X136.366 Y137.378 E0.085
G1 X136.297 Y137.496 E0.153
G1 X136.258 Y137.562 E0.085
G1 X136.194 Y137.682 E0.153
G1 X136.159 Y137.749 E0.085
G1 X136.100 Y137.872 E0.153
G1 X136.067 Y137.940 E0.085
G1 X136.014 Y138.066 E0.153
G1 X135.984 Y138.136 E0.085
G1 X135.936 Y138.263 E0.153
G1 X135.909 Y138.334 E0.085
G1 X135.866 Y138.464 E0.153
G1 X135.842 Y138.536 E0.085
G1 X135.805 Y138.667 E0.153
G1 X135.785 Y138.740 E0.085
G1 X135.753 Y138.873 E0.153
G1 X135.735 Y138.947 E0.085
G1 X135.710 Y139.081 E0.153
G1 X135.695 Y139.155 E0.085
G1 X135.675 Y139.290 E0.153
G1 X135.664 Y139.365 E0.085
G1 X135.649 Y139.501 E0.153
G1 X135.641 Y139.576 E0.085
G1 X135.633 Y139.712 E0.153
G1 X135.628 Y139.788 E0.085
G1 X135.625 Y139.924 E0.153
G1 X135.623 Y140.000 E0.085
G1 X135.623 Y156.071 E18.041
G1 X135.623 Y165.000 E10.023
G1 X138.114 Y157.730 E8.627
G1 X139.498 Y153.691 E4.793
G1 X146.249 Y160.954 E11.131
G1 X150.000 Y164.988 E6.184
G1 X157.038 Y157.634 E11.427
G1 X160.948 Y153.548 E6.348
G1 X163.152 Y160.910 E8.627
G1 X164.377 Y165.000 E4.793
G1 X164.377 Y148.929 E18.041
G1 X164.377 Y140.000 E10.023
G1 X164.374 Y139.860 E0.157
G1 X164.372 Y139.782 E0.087
G1 X164.363 Y139.642 E0.157
G1 X164.358 Y139.564 E0.087
G1 X164.342 Y139.425 E0.157
G1 X164.334 Y139.347 E0.087
G1 X164.313 Y139.209 E0.157
G1 X164.301 Y139.132 E0.087
G1 X164.273 Y138.994 E0.157
G1 X164.258 Y138.918 E0.087
G1 X164.225 Y138.782 E0.157
G1 X164.206 Y138.706 E0.087
G1 X164.167 Y138.571 E0.157
G1 X164.145 Y138.496 E0.087
G1 X164.100 Y138.364 E0.157
G1 X164.075 Y138.290 E0.087
G1 X164.024 Y138.159 E0.157
G1 X163.996 Y138.087 E0.087
G1 X163.940 Y137.958 E0.157
G1 X163.908 Y137.887 E0.087
G1 X163.846 Y137.761 E0.157
G1 X163.812 Y137.691 E0.087
G1 X163.744 Y137.568 E0.157
G1 X163.707 Y137.500 E0.087
G1 X163.634 Y137.380 E0.157
G1 X163.594 Y137.314 E0.087
G1 X163.516 Y137.197 E0.157
G1 X163.473 Y137.132 E0.087
G1 X163.390 Y137.019 E0.157
G1 X163.344 Y136.956 E0.087
G1 X163.256 Y136.847 E0.157
G1 X163.207 Y136.786 E0.087
G1 X163.115 Y136.681 E0.157
G1 X163.063 Y136.622 E0.087
G1 X162.966 Y136.521 E0.157
G1 X162.912 Y136.464 E0.087
G1 X162.811 Y136.367 E0.157
G1 X162.755 Y136.314 E0.087
G1 X162.649 Y136.221 E0.157
G1 X162.591 Y136.170 E0.087
G1 X162.481 Y136.082 E0.157
G1 X162.421 Y136.033 E0.087
G1 X162.307 Y135.950 E0.157
G1 X162.245 Y135.904 E0.087
G1 X162.128 Y135.826 E0.157
G1 X162.063 Y135.783 E0.087
G1 X161.943 Y135.710 E0.157
G1 X161.877 Y135.670 E0.087
G1 X161.754 Y135.602 E0.157
G1 X161.686 Y135.565 E0.087
G1 X161.560 Y135.503 E0.157
G1 X161.490 Y135.468 E0.087
G1 X161.362 Y135.412 E0.157
G1 X161.290 Y135.381 E0.087
G1 X161.159 Y135.330 E0.157
G1 X161.087 Y135.302 E0.087
G1 X160.954 Y135.256 E0.157
G1 X160.880 Y135.231 E0.087
G1 X160.746 Y135.192 E0.157
G1 X160.671 Y135.170 E0.087
G1 X160.535 Y135.137 E0.157
G1 X160.459 Y135.119 E0.087
G1 X160.321 Y135.091 E0.157
G1 X160.245 Y135.076 E0.087
G1 X160.106 Y135.055 E0.157
G1 X160.029 Y135.043 E0.087
G1 X159.890 Y135.028 E0.157
G1 X159.813 Y135.019 E0.087
G1 X159.673 Y135.010 E0.157
G1 X159.595 Y135.005 E0.087
G1 X159.455 Y135.002 E0.157
G1 X159.377 Y135.000 E0.087
G1 X159.240 Y135.003 E0.153
G1 X159.165 Y135.005 E0.085
G1 X159.028 Y135.013 E0.153
G1 X158.953 Y135.018 E0.085
G1 X158.817 Y135.032 E0.153
G1 X158.742 Y135.040 E0.085
G1 X158.607 Y135.061 E0.153
G1 X158.532 Y135.072 E0.085
G1 X158.398 Y135.098 E0.153
G1 X158.323 Y135.112 E0.085
G1 X158.191 Y135.144 E0.153
G1 X158.117 Y135.161 E0.085
G1 X157.986 Y135.199 E0.153
G1 X157.913 Y135.219 E0.085
G1 X157.783 Y135.262 E0.153
G1 X157.711 Y135.286 E0.085
G1 X157.583 Y135.334 E0.153
G1 X157.512 Y135.361 E0.085
G1 X157.387 Y135.414 E0.153
G1 X157.317 Y135.444 E0.085
G1 X150.925 Y149.315
G1 F3600    ;set extrusion feedrate
G1 X150.869 Y149.291 E0.069
G1 X150.838 Y149.277 E0.038
G1 X150.781 Y149.255 E0.069
G1 X150.781 Y149.255 E0.000
G1 X150.749 Y149.242 E0.038
G1 X150.691 Y149.223 E0.069
G1 X150.658 Y149.212 E0.038
G1 X150.599 Y149.195 E0.069
G1 X150.567 Y149.185 E0.038
G1 X150.507 Y149.170 E0.069
G1 X150.474 Y149.162 E0.038
G1 X150.414 Y149.150 E0.069
G1 X150.380 Y149.144 E0.038
G1 X150.319 Y149.134 E0.069
G1 X150.286 Y149.129 E0.038
G1 X150.225 Y149.122 E0.069
G1 X150.191 Y149.119 E0.038
G1 X150.130 Y149.115 E0.069
G1 X150.095 Y149.112 E0.038
G1 X150.034 Y149.111 E0.069
G1 X150.000 Y149.110 E0.038
G1 X149.939 Y149.112 E0.069
G1 X149.905 Y149.112 E0.038
G1 X149.843 Y149.116 E0.069
G1 X149.809 Y149.119 E0.038
G1 X149.748 Y149.125 E0.069
G1 X149.714 Y149.129 E0.038
G1 X149.654 Y149.138 E0.069
G1 X149.620 Y149.144 E0.038
G1 X149.560 Y149.156 E0.069
G1 X149.526 Y149.162 E0.038
G1 X149.467 Y149.177 E0.069
G1 X149.433 Y149.185 E0.038
G1 X149.374 Y149.202 E0.069
G1 X149.342 Y149.212 E0.038
G1 X149.284 Y149.231 E0.069
G1 X149.251 Y149.242 E0.038
G1 X149.194 Y149.265 E0.069
G1 X149.162 Y149.277 E0.038
G1 X149.106 Y149.302 E0.069
G1 X149.075 Y149.315 E0.038
G1 X149.020 Y149.343 E0.069
G1 X148.989 Y149.358 E0.038
G1 X148.935 Y149.387 E0.069
G1 X148.905 Y149.404 E0.038
G1 X148.853 Y149.436 E0.069
G1 X148.824 Y149.453 E0.038
G1 X148.773 Y149.487 E0.069
G1 X148.744 Y149.506 E0.038
G1 X148.695 Y149.543 E0.069
G1 X148.667 Y149.563 E0.038
G1 X148.619 Y149.601 E0.069
G1 X148.593 Y149.623 E0.038
G1 X148.547 Y149.663 E0.069
G1 X148.521 Y149.686 E0.038
G1 X148.477 Y149.728 E0.069
G1 X148.452 Y149.752 E0.038
G1 X148.410 Y149.796 E0.069
G1 X148.386 Y149.821 E0.038
G1 X148.345 Y149.867 E0.069
G1 X148.323 Y149.892 E0.038
G1 X148.285 Y149.940 E0.069
G1 X148.263 Y149.967 E0.038
G1 X148.227 Y150.016 E0.069
G1 X148.207 Y150.044 E0.038
G1 X148.173 Y150.095 E0.069
G1 X148.154 Y150.123 E0.038
G1 X148.122 Y150.176 E0.069
G1 X148.104 Y150.205 E0.038
G1 X148.075 Y150.259 E0.069
G1 X148.058 Y150.289 E0.038
G1 X148.031 Y150.344 E0.069
G1 X148.016 Y150.374 E0.038
G1 X147.991 Y150.431 E0.069
G1 X147.977 Y150.462 E0.038
G1 X147.955 Y150.519 E0.069
G1 X147.943 Y150.551 E0.038
G1 X147.923 Y150.609 E0.069
G1 X147.912 Y150.641 E0.038
G1 X147.895 Y150.700 E0.069
G1 X147.885 Y150.733 E0.038
G1 X147.871 Y150.793 E0.069
G1 X147.863 Y150.826 E0.038
G1 X147.851 Y150.886 E0.069
G1 X147.844 Y150.919 E0.038
G1 X147.835 Y150.980 E0.069
G1 X147.830 Y151.014 E0.038
G1 X147.823 Y151.075 E0.069
G1 X147.819 Y151.109 E0.038
G1 X147.815 Y151.170 E0.069
G1 X147.813 Y151.204 E0.038
G1 X147.812 Y151.265 E0.069
G1 X147.811 Y151.300 E0.038
G1 X147.812 Y151.361 E0.069
G1 X147.813 Y151.395 E0.038
G1 X147.817 Y151.456 E0.069
G1 X147.819 Y151.490 E0.038
G1 X147.826 Y151.551 E0.069
G1 X147.830 Y151.585 E0.038
G1 X147.839 Y151.646 E0.069
G1 X147.844 Y151.680 E0.038
G1 X147.856 Y151.740 E0.069
G1 X147.863 Y151.773 E0.038
G1 X147.877 Y151.833 E0.069
G1 X147.885 Y151.866 E0.038
G1 X147.903 Y151.925 E0.069
G1 X147.912 Y151.958 E0.038
G1 X147.932 Y152.016 E0.069
G1 X147.943 Y152.048 E0.038
G1 X147.965 Y152.106 E0.069
G1 X147.977 Y152.137 E0.038
G1 X148.002 Y152.194 E0.069
G1 X148.016 Y152.225 E0.038
G1 X148.043 Y152.280 E0.069
G1 X148.058 Y152.310 E0.038
G1 X148.088 Y152.364 E0.069
G1 X148.104 Y152.394 E0.038
G1 X148.136 Y152.447 E0.069
G1 X148.154 Y152.476 E0.038
G1 X148.188 Y152.527 E0.069
G1 X148.207 Y152.555 E0.038
G1 X148.243 Y152.605 E0.069
G1 X148.263 Y152.632 E0.038
G1 X148.302 Y152.680 E0.069
G1 X148.323 Y152.707 E0.038
G1 X148.363 Y152.753 E0.069
G1 X148.386 Y152.779 E0.038
G1 X148.428 Y152.823 E0.069
G1 X148.452 Y152.848 E0.038
G1 X148.496 Y152.890 E0.069
G1 X148.521 Y152.914 E0.038
G1 X148.567 Y152.954 E0.069
G1 X148.593 Y152.977 E0.038
G1 X148.641 Y153.015 E0.069
G1 X148.667 Y153.036 E0.038
G1 X148.717 Y153.073 E0.069
G1 X148.744 Y153.093 E0.038
G1 X148.795 Y153.127 E0.069
G1 X148.824 Y153.146 E0.038
G1 X148.876 Y153.178 E0.069
G1 X148.905 Y153.195 E0.038
G1 X148.959 Y153.225 E0.069
G1 X148.989 Y153.241 E0.038
G1 X149.044 Y153.269 E0.069
G1 X149.075 Y153.284 E0.038
G1 X149.131 Y153.308 E0.069
G1 X149.162 Y153.322 E0.038
G1 X149.219 Y153.344 E0.069
G1 X149.251 Y153.357 E0.038
G1 X149.309 Y153.376 E0.069
G1 X149.342 Y153.387 E0.038
G1 X149.401 Y153.405 E0.069
G1 X149.433 Y153.414 E0.038
G1 X149.493 Y153.429 E0.069
G1 X149.526 Y153.437 E0.038
G1 X149.586 Y153.449 E0.069
G1 X149.620 Y153.456 E0.038
G1 X149.681 Y153.465 E0.069
G1 X149.714 Y153.470 E0.038
G1 X149.775 Y153.477 E0.069
G1 X149.809 Y153.480 E0.038
G1 X149.870 Y153.484 E0.069
G1 X149.905 Y153.487 E0.038
G1 X149.966 Y153.488 E0.069
G1 X150.000 Y153.489 E0.038
G1 X150.061 Y153.487 E0.069
G1 X150.095 Y153.487 E0.038
G1 X150.157 Y153.483 E0.069
G1 X150.191 Y153.480 E0.038
G1 X150.252 Y153.474 E0.069
G1 X150.286 Y153.470 E0.038
G1 X150.346 Y153.461 E0.069
G1 X150.380 Y153.456 E0.038
G1 X150.440 Y153.444 E0.069
G1 X150.474 Y153.437 E0.038
G1 X150.533 Y153.422 E0.069
G1 X150.567 Y153.414 E0.038
G1 X150.626 Y153.397 E0.069
G1 X150.658 Y153.387 E0.038
G1 X150.716 Y153.368 E0.069
G1 X150.749 Y153.357 E0.038
G1 X150.806 Y153.335 E0.069
G1 X150.838 Y153.322 E0.038
G1 X150.894 Y153.297 E0.069
G1 X150.925 Y153.284 E0.038
G1 X150.980 Y153.257 E0.069
G1 X151.011 Y153.241 E0.038
G1 X151.065 Y153.212 E0.069
G1 X151.095 Y153.195 E0.038
G1 X151.147 Y153.164 E0.069
G1 X151.176 Y153.146 E0.038
G1 X151.227 Y153.112 E0.069
G1 X151.256 Y153.093 E0.038
G1 X151.305 Y153.057 E0.069
G1 X151.333 Y153.036 E0.038
G1 X151.381 Y152.998 E0.069
G1 X151.407 Y152.977 E0.038
G1 X151.453 Y152.936 E0.069
G1 X151.479 Y152.914 E0.038
G1 X151.523 Y152.871 E0.069
G1 X151.548 Y152.848 E0.038
G1 X151.590 Y152.803 E0.069
G1 X151.614 Y152.779 E0.038
G1 X151.655 Y152.732 E0.069
G1 X151.677 Y152.707 E0.038
G1 X151.715 Y152.659 E0.069
G1 X151.737 Y152.632 E0.038
G1 X151.773 Y152.583 E0.069
G1 X151.793 Y152.555 E0.038
G1 X151.827 Y152.504 E0.069
G1 X151.846 Y152.476 E0.038
G1 X151.878 Y152.423 E0.069
G1 X151.896 Y152.394 E0.038
G1 X151.925 Y152.340 E0.069
G1 X151.942 Y152.310 E0.038
G1 X151.969 Y152.255 E0.069
G1 X151.984 Y152.225 E0.038
G1 X152.009 Y152.169 E0.069
G1 X152.023 Y152.137 E0.038
G1 X152.045 Y152.080 E0.069
G1 X152.057 Y152.048 E0.038
G1 X152.077 Y151.990 E0.069
G1 X152.088 Y151.958 E0.038
G1 X152.105 Y151.899 E0.069
G1 X152.115 Y151.866 E0.038
G1 X152.129 Y151.807 E0.069
G1 X152.137 Y151.773 E0.038
G1 X152.149 Y151.713 E0.069
G1 X152.156 Y151.680 E0.038
G1 X152.165 Y151.619 E0.069
G1 X152.170 Y151.585 E0.038
G1 X152.177 Y151.524 E0.069
G1 X152.181 Y151.490 E0.038
G1 X152.185 Y151.429 E0.069
G1 X152.187 Y151.395 E0.038
G1 X152.188 Y151.334 E0.069
G1 X152.189 Y151.300 E0.038
G1 X152.188 Y151.238 E0.069
G1 X152.187 Y151.204 E0.038
G1 X152.183 Y151.143 E0.069
G1 X152.181 Y151.109 E0.038
G1 X152.174 Y151.048 E0.069
G1 X152.170 Y151.014 E0.038
G1 X152.161 Y150.953 E0.069
G1 X152.156 Y150.919 E0.038
G1 X152.144 Y150.859 E0.069
G1 X152.137 Y150.826 E0.038
G1 X152.123 Y150.766 E0.069
G1 X152.115 Y150.733 E0.038
G1 X152.097 Y150.674 E0.069
G1 X152.088 Y150.641 E0.038
G1 X152.068 Y150.583 E0.069
G1 X152.057 Y150.551 E0.038
G1 X152.035 Y150.494 E0.069
G1 X152.023 Y150.462 E0.038
G1 X151.998 Y150.406 E0.069
G1 X151.984 Y150.374 E0.038
G1 X151.957 Y150.319 E0.069
G1 X151.942 Y150.289 E0.038
G1 X151.912 Y150.235 E0.069
G1 X151.896 Y150.205 E0.038
G1 X151.864 Y150.152 E0.069
G1 X151.846 Y150.123 E0.038
G1 X151.812 Y150.072 E0.069
G1 X151.793 Y150.044 E0.038
G1 X151.757 Y149.994 E0.069
G1 X151.737 Y149.967 E0.038
G1 X151.698 Y149.919 E0.069
G1 X151.677 Y149.892 E0.038
G1 X151.637 Y149.846 E0.069
G1 X151.614 Y149.821 E0.038
G1 X151.572 Y149.776 E0.069
G1 X151.548 Y149.752 E0.038
G1 X151.504 Y149.709 E0.069
G1 X151.479 Y149.686 E0.038
G1 X151.433 Y149.645 E0.069
G1 X151.407 Y149.623 E0.038
G1 X151.359 Y149.584 E0.069
G1 X151.333 Y149.563 E0.038
G1 X151.283 Y149.526 E0.069
G1 X151.256 Y149.506 E0.038
G1 X151.205 Y149.472 E0.069
G1 X151.176 Y149.453 E0.038
G1 X151.124 Y149.421 E0.069
G1 X151.095 Y149.404 E0.038
G1 X151.041 Y149.374 E0.069
G1 X151.011 Y149.358 E0.038
G1 X150.956 Y149.331 E0.069
G1 X150.925 Y149.315 E0.038
G1 F2400     ;set ret spd
G1 E-1       ;ret fil
G1 Z15.000  ;ZHop
G1 F4800    ;set ret spd
M201 X500 Y500              ;set acceleration to 500mm/s^2
G1 F 1000                   ;set feedrate to 1000 mm/min
G1 X0 Y0                    ;home x and y axes
M104 S0                     ;turn extruder heater off
M140 S0                     ;turn bed heater off (if it exists)
M84                         ;turn steppers off
M106 S0                     ;turn fan off
